X:666
T:Johnny Will You Marry Me
T:Johnny Won't You Marry Me
T:The Braes o' Mar
S:Boys of the Lough/sessions
Z:Nigel Gatherer
L:1/8
M:4/4
K:G
GE | D2 DE GABA | GE E/E/E cEGE | D2 DE GABc | dedB A2 :|
z2 | BddB  GBdB | e2 ed    cdec | BGGB  GABc | dedB A2 :|]
